X:756
T:Golden Boy
C:Andy De Jarlis
N:as played in New Hampshire
M:2/4
L:1/16
Z:<http://tunes.nhcountrydance.com>.
K:D
F2G2|A4 d2e2|f6cd|e2d2 c2B2|A4F2F2|G4 e2>e2|e4G2G2|F4 d2>d2|d4 F2G2|
A4 d2e2|f6cd|e2d2 c2B2|A4F2F2|G4 e2>d2|c2A2 B2c2|d8|d4|]
[|e2>f2|g2B2 g2B2|g6 ag|f2A2 f2A2|f6 gf|e2A2 c2d2|e2g2 f2e2|f4>d4|A6 ef|
g2B2 g2B2|g6 ag|f2A2 f2A2|f6 gf|e2A2 c2d2|e2g2 f2e2|d8|d4|]

